X: 32758
T: Polska Från Hälleforsnäs
R: waltz
M: 3/4
K: Aminor
V:1
|:"C"g3/2f/ ed ec|"Am"cB/c/ dc "G"BA/G/|"Am"E3/2A/ AB cd|"C"ef/e/ "G"de/f/ "Am"e2|
"C"g3/2f/ ed ec|"Am"cB/c/ dc "G"BA/G/|"Am"E3/2A/ AB cB|"G"GA "Am"A4:|
|:"Am"E2 A2 "G"B2|"C"cB/c/ dc "G"BA/G/|"Am"E3/2A/ AB cd|"C"ef/e/ "G"de/f/ "C"e2|
"Am"E2 A2 "G"B2|"C"cB/c/ "G"dc BA/G/|"Am"E3/2A/ AB cB|"G"GA "Am"A4:|
V:2
|:e3/2d/ cB cE|AG/A/ BA GD|C3/2E/ EG AB|cd/c/ Bc/d/ cA|
E3/2G/ cB cE|AG/A/ BA GD|C3/2E/ ED ED|B,C [E4A,4]:|
|:C2 E2 GF|ED/E/ FE DC/B,/|A,3/2C/ CD EF|GA/c/ Bc/d/ c2|
A,C EC G,D|ED/E/ FE DC/B,/|A,3/2C/ CE AG|FE [A,4E4]:|

